X: 1
T: Seijarin polska
O: trad. Finland
P: polska
Z: 2013 John Chambers <jc:trillian.mit.edu>
M: 3/4
L: 1/16
K: G
|:\
"G"g2ba g3e "C"e2d2 | "G"d2ef gfge "C"e2d2 |\
"G"d2gf "Em"g2B2 "Am"A2c2 | "D7"BcAF "G"G4 G4 :|
|:\
"G"BABd edBd "Am"c2Bc | "D7"A2AB c2Ac "G"B2G2 |\
"G"B2d2 edBd "Am"c2Bc | "D7"A2AB c2Ac "G"B2G2 |\
"Em"G2gf g2B2 "Am"A2c2 | "D7"BcAF "G"G4 G4 :|

%%sep 1 1 500

